X:1
T:Tempus adest
T:Daniel Friderici
T:Source : Bicinia sacra---Rostock---J.Richelius---1642. Editor : André Vierendeels (14/07/17).
T:Notes : Original clefs : G2, G2 Original note values have been halved in 3-beat measures Editorial accidentals above the staff 
T:Tempus adest
T:©
T:©
T:©
C:Daniel Friderici
Z:©
%%score [ 1 2 ]
L:1/8
Q:1/4=120
M:2/2
K:C
V:1 treble nm="Soprano 1" snm="S 1"
V:2 treble nm="Soprano 2" snm="S 2"
V:1
 g8- | g4 g4 | e2 d2 e2 f2 | g6 f2 | e2 d2 c4- | c2 B2 B2 AG | A8 | G8 | z4 g4 | g4 g4 | %10
w: Tem-|* pus|ad- * * *|||||est,|sta-|bis cum|
 e2 d2 e2 f2 | g6 f2 | e2 d2 c4- | c2 B2 B2 AG | A4 A4 | G4 c4 | cBcd e4- | e2 g2 g4- | g2 ^fe f4 | %19
w: Ju- * * *||||* di-|cis an-|te _ _ _ _|_ tri- bu-||
 g4 z2 g2 | e3 d c4- | c2 B2 B2 AG | A3 B/c/ d4 | G8 :: c8- | c4 z ccd | e2 e2 z eef | %27
w: nal, an-|te _ _|_ tri- bu- * *||nal:|Tu,|_ Tu ma- la|fa- cta, tu ma- la|
 g2 g2 z GGA | B2 B2 z BBc | d2 d2 z dde | f2 f2 z ffg | a2 a2 z4 |[M:6/4] a4 e2 g3 g d2 | %33
w: fa- cta, tu ma- la|fa- cta, tu ma- la|fa- cta, tu ma- la|fa- cta tu ma- la|fa- cta,|bo- nis cor- ri- ge|
 f2 c2 g2 cB cd ef | g2 G2 B2 c3 B A2 | B2 G2 d2 G2 c2 d2 | e3 f g2 f2 e2 d2 | c12 :| %38
w: tem- pus ad- est, _ _ _ _ _|_ bo- nis cor- ri- ge|tem- pus ad- est, bo- nis|cor- ri- ge tem- pus ad-|est.|
V:2
 z8 | z8 | z8 | z8 | g8- | g4 g4 | e2 d2 e2 f2 | g6 f2 | e2 d2 c4- | c2 B2 B2 AG | A8 | G8 | %12
w: ||||Tem-|* pus|ad- * * *|||||est,|
 z4 g4 | g4 g4 | e2 d2 e2 f2 | g6 f2 | e3 d c4- | c2 B2 B2 AG | A4 A4 | G4 c4 | cBcd e4- | %21
w: sta-|bis cum|Ju- * * *||||* di-|cis, an-|te _ _ _ _|
 e2 g2 g4- | g2 ^fe f4 | g8 :: e8 | z ecd e2 e2 | z eef g2 g2 | z GGA B2 B2 | z BBc d2 d2 | %29
w: _ tri- bu-||nal:|Tu,|Tu ma- la fa- cta,|tu ma- la fa- cta,|tu ma- la fa- cta,|tu ma- la fa- cta,|
 z dde f2 f2 | z ffg a2 a2 | z ffg a2 a2 |[M:6/4] f4 g2 e3 e f2 | d2 e2 c2 ed ef g2 | %34
w: tu ma- la fa cta,|tu ma- la fa- cta,|tu ma- la fa- cta,|bo- nis cor- ri- ge|tem- pus ad- * * * * est,|
 e2 d4 e3 d c2 | G2 g2 ^f2 g2 e2 a2 | g3 f e2 d2 c2 B2 | c12 :| %38
w: bo- nis cor- ri- ge|tem- pus ad- est, bo- nis|cor- ri- ge tem- pus ad|est.|

